packages/bezier-icons/icons/channel-x-symbol.svg

<svg width="24" height="24" viewBox="0 0 24 24" fill="none" xmlns="http://www.w3.org/2000/svg">
<path fill-rule="evenodd" clip-rule="evenodd" d="M9.279 2H14.721C18.7411 2 22 5.25892 22 9.279V14.721C22 18.7411 18.7411 22 14.721 22H9.279C5.25892 22 2 18.7411 2 14.721V9.279C2 5.25892 5.25892 2 9.279 2ZM16.149 13.888L17.833 14.685C18.056 14.79 18.136 15.067 18.005 15.275C17.032 16.818 15.083 17.55 13.32 16.964C12.259 16.616 11.455 15.875 10.993 14.969C10.845 15.089 10.696 15.205 10.542 15.317C9.802 15.861 8.988 16.323 8.141 16.677C8.018 16.73 7.697 16.847 7.443 16.938C7.245 17.009 7.025 16.919 6.934 16.729L6.115 15.021C6.019 14.822 6.124 14.585 6.335 14.52H6.339C6.535 14.465 6.755 14.392 6.949 14.325C7.346 14.178 7.747 13.999 8.118 13.795C8.20558 13.7502 8.31171 13.6873 8.41014 13.629C8.45445 13.6027 8.4972 13.5774 8.536 13.555C8.58102 13.5255 8.62779 13.4955 8.67477 13.4654C8.73423 13.4273 8.79402 13.389 8.851 13.351C8.911 13.308 9.056 13.205 9.114 13.165C9.167 13.124 9.315 13.011 9.37 12.969C9.42034 12.9297 9.47218 12.8863 9.52345 12.8434C9.5557 12.8163 9.58772 12.7895 9.619 12.764C9.969 12.465 10.305 12.126 10.605 11.777C10.654 11.723 10.7 11.663 10.741 11.603C11.151 10.999 11.019 10.132 10.436 9.68803C10.035 9.36703 9.451 9.29403 8.986 9.51103C8.813 9.59003 8.658 9.70203 8.531 9.84303C8.505 9.87103 8.48 9.90103 8.456 9.93203C8.338 10.085 8.129 10.135 7.955 10.052L6.271 9.25503C6.048 9.15003 5.968 8.87303 6.099 8.66503C7.072 7.12203 9.021 6.39003 10.784 6.97603C11.845 7.32403 12.649 8.06503 13.111 8.97103C13.259 8.85103 13.408 8.73503 13.562 8.62303C14.302 8.07903 15.116 7.61703 15.963 7.26303C16.086 7.21003 16.407 7.09303 16.661 7.00203C16.859 6.93103 17.079 7.02103 17.17 7.21103L17.989 8.91903C18.084 9.11803 17.98 9.35503 17.769 9.42003H17.765C17.569 9.47503 17.349 9.54803 17.155 9.61503C16.758 9.76203 16.357 9.94103 15.986 10.145C15.8984 10.1898 15.7923 10.2527 15.6939 10.3111C15.6496 10.3373 15.6068 10.3627 15.568 10.385C15.523 10.4146 15.4762 10.4446 15.4292 10.4746C15.3698 10.5127 15.31 10.551 15.253 10.589C15.193 10.632 15.048 10.735 14.99 10.775C14.9387 10.8147 14.7984 10.9219 14.7396 10.9668L14.734 10.971C14.6837 11.0103 14.6318 11.0537 14.5806 11.0967C14.5483 11.1237 14.5163 11.1505 14.485 11.176C14.135 11.475 13.799 11.814 13.499 12.163C13.45 12.217 13.404 12.277 13.363 12.337C12.953 12.941 13.085 13.808 13.668 14.252C14.069 14.573 14.654 14.646 15.118 14.429C15.291 14.35 15.446 14.238 15.573 14.097C15.599 14.069 15.624 14.039 15.648 14.008C15.766 13.855 15.975 13.805 16.149 13.888Z" fill="#313234"/>
</svg>

<svg xmlns="http://www.w3.org/2000/svg" width="24" height="24" fill="none" viewBox="0 0 24 24"><path fill="#313234" fill-rule="evenodd" d="M9.279 2h5.442A7.28 7.28 0 0 1 22 9.279v5.442A7.28 7.28 0 0 1 14.721 22H9.279A7.28 7.28 0 0 1 2 14.721V9.279A7.28 7.28 0 0 1 9.279 2m6.87 11.888 1.684.797a.41.41 0 0 1 .172.59c-.973 1.543-2.922 2.275-4.685 1.689a4 4 0 0 1-2.327-1.995q-.221.18-.451.348a11.7 11.7 0 0 1-2.401 1.36c-.123.053-.444.17-.698.261a.41.41 0 0 1-.509-.209l-.819-1.708a.36.36 0 0 1 .22-.501h.004c.196-.055.416-.128.61-.195a9 9 0 0 0 1.169-.53c.088-.045.194-.108.292-.166l.126-.074.139-.09.176-.114.263-.186.256-.196.153-.126.096-.079c.35-.299.686-.638.986-.987q.074-.083.136-.174c.41-.604.278-1.471-.305-1.915a1.41 1.41 0 0 0-1.45-.177 1.4 1.4 0 0 0-.53.421.41.41 0 0 1-.501.12l-1.684-.797a.41.41 0 0 1-.172-.59c.973-1.543 2.922-2.275 4.685-1.689a4 4 0 0 1 2.327 1.995q.221-.18.451-.348a11.7 11.7 0 0 1 2.401-1.36c.123-.053.444-.17.698-.261a.41.41 0 0 1 .509.209l.819 1.708a.36.36 0 0 1-.22.501h-.004c-.196.055-.416.128-.61.195a9 9 0 0 0-1.461.696l-.126.074-.139.09-.176.114-.263.186-.25.192-.006.004-.153.126-.096.079c-.35.299-.686.638-.986.987a2 2 0 0 0-.136.174c-.41.604-.278 1.471.305 1.915.401.321.986.394 1.45.177a1.4 1.4 0 0 0 .53-.421.41.41 0 0 1 .501-.12" clip-rule="evenodd"/></svg>
